src/icons/svg/th.svg

<?xml version="1.0" encoding="UTF-8"?>
<svg width="40px" height="32px" viewBox="0 0 40 32" version="1.1" xmlns="http://www.w3.org/2000/svg"
>
    <path d="M11.4285714,25 L11.4285714,29.2857143 C11.4285714,29.8809524 11.2202381,30.3869047 10.8035714,30.8035714 C10.3869048,31.2202381 9.88095239,31.4285714 9.28571429,31.4285714 L2.14285715,31.4285714 C1.54761905,31.4285714 1.04166667,31.2202381 0.624999999,30.8035714 C0.208333333,30.3869047 2.66453526e-15,29.8809524 2.66453526e-15,29.2857143 L2.66453526e-15,25 C2.66453526e-15,24.4047619 0.208333333,23.8988095 0.624999999,23.4821428 C1.04166667,23.0654762 1.54761905,22.8571428 2.14285715,22.8571428 L9.28571429,22.8571428 C9.88095239,22.8571428 10.3869048,23.0654762 10.8035714,23.4821428 C11.2202381,23.8988095 11.4285714,24.4047619 11.4285714,25 Z M11.4285714,13.5714285 L11.4285714,17.8571428 C11.4285714,18.4523809 11.2202381,18.9583333 10.8035714,19.375 C10.3869048,19.7916666 9.88095239,20 9.28571429,20 L2.14285715,20 C1.54761905,20 1.04166667,19.7916666 0.624999999,19.375 C0.208333333,18.9583333 2.66453526e-15,18.4523809 2.66453526e-15,17.8571428 L2.66453526e-15,13.5714285 C2.66453526e-15,12.9761904 0.208333333,12.4702381 0.624999999,12.0535714 C1.04166667,11.6369047 1.54761905,11.4285714 2.14285715,11.4285714 L9.28571429,11.4285714 C9.88095239,11.4285714 10.3869048,11.6369047 10.8035714,12.0535714 C11.2202381,12.4702381 11.4285714,12.9761904 11.4285714,13.5714285 L11.4285714,13.5714285 Z M25.7142857,25 L25.7142857,29.2857143 C25.7142857,29.8809524 25.5059524,30.3869047 25.0892857,30.8035714 C24.6726191,31.2202381 24.1666667,31.4285714 23.5714286,31.4285714 L16.4285714,31.4285714 C15.8333333,31.4285714 15.3273809,31.2202381 14.9107143,30.8035714 C14.4940476,30.3869047 14.2857143,29.8809524 14.2857143,29.2857143 L14.2857143,25 C14.2857143,24.4047619 14.4940476,23.8988095 14.9107143,23.4821428 C15.3273809,23.0654762 15.8333333,22.8571428 16.4285714,22.8571428 L23.5714286,22.8571428 C24.1666667,22.8571428 24.6726191,23.0654762 25.0892857,23.4821428 C25.5059524,23.8988095 25.7142857,24.4047619 25.7142857,25 Z M11.4285714,2.14285715 L11.4285714,6.42857144 C11.4285714,7.02380954 11.2202381,7.52976192 10.8035714,7.94642859 C10.3869048,8.36309525 9.88095239,8.57142859 9.28571429,8.57142859 L2.14285715,8.57142859 C1.54761905,8.57142859 1.04166667,8.36309525 0.624999999,7.94642859 C0.208333333,7.52976192 0,7.02380954 0,6.42857144 L0,2.14285715 C0,1.54761905 0.208333333,1.04166667 0.624999999,0.624999999 C1.04166667,0.208333333 1.54761905,0 2.14285715,0 L9.28571429,0 C9.88095239,0 10.3869048,0.208333333 10.8035714,0.624999999 C11.2202381,1.04166667 11.4285714,1.54761905 11.4285714,2.14285715 Z M25.7142857,13.5714286 L25.7142857,17.8571429 C25.7142857,18.452381 25.5059524,18.9583334 25.0892857,19.375 C24.6726191,19.7916667 24.1666667,20 23.5714286,20 L16.4285714,20 C15.8333333,20 15.3273809,19.7916667 14.9107143,19.375 C14.4940476,18.9583334 14.2857143,18.452381 14.2857143,17.8571429 L14.2857143,13.5714286 C14.2857143,12.9761905 14.4940476,12.4702381 14.9107143,12.0535714 C15.3273809,11.6369048 15.8333333,11.4285714 16.4285714,11.4285714 L23.5714286,11.4285714 C24.1666667,11.4285714 24.6726191,11.6369048 25.0892857,12.0535714 C25.5059524,12.4702381 25.7142857,12.9761905 25.7142857,13.5714286 L25.7142857,13.5714286 Z M40,25 L40,29.2857143 C40,29.8809524 39.7916667,30.3869048 39.375,30.8035715 C38.9583333,31.2202381 38.452381,31.4285715 37.8571429,31.4285715 L30.7142857,31.4285715 C30.1190476,31.4285715 29.6130952,31.2202381 29.1964286,30.8035715 C28.7797619,30.3869048 28.5714286,29.8809524 28.5714286,29.2857143 L28.5714286,25 C28.5714286,24.4047619 28.7797619,23.8988095 29.1964286,23.4821429 C29.6130952,23.0654762 30.1190476,22.8571429 30.7142857,22.8571429 L37.8571429,22.8571429 C38.452381,22.8571429 38.9583333,23.0654762 39.375,23.4821429 C39.7916667,23.8988095 40,24.4047619 40,25 Z M25.7142857,2.14285719 L25.7142857,6.42857148 C25.7142857,7.02380958 25.5059524,7.52976196 25.0892857,7.94642863 C24.6726191,8.36309529 24.1666667,8.57142862 23.5714286,8.57142862 L16.4285714,8.57142862 C15.8333333,8.57142862 15.3273809,8.36309529 14.9107143,7.94642863 C14.4940476,7.52976196 14.2857143,7.02380958 14.2857143,6.42857148 L14.2857143,2.14285719 C14.2857143,1.54761909 14.4940476,1.0416667 14.9107143,0.625000038 C15.3273809,0.208333372 15.8333333,3.90624795e-08 16.4285714,3.90624795e-08 L23.5714286,3.90624795e-08 C24.1666667,3.90624795e-08 24.6726191,0.208333372 25.0892857,0.625000038 C25.5059524,1.0416667 25.7142857,1.54761909 25.7142857,2.14285719 Z M40,13.5714286 L40,17.8571429 C40,18.452381 39.7916667,18.9583334 39.375,19.3750001 C38.9583333,19.7916667 38.452381,20.0000001 37.8571429,20.0000001 L30.7142857,20.0000001 C30.1190476,20.0000001 29.6130952,19.7916667 29.1964286,19.3750001 C28.7797619,18.9583334 28.5714286,18.452381 28.5714286,17.8571429 L28.5714286,13.5714286 C28.5714286,12.9761905 28.7797619,12.4702381 29.1964286,12.0535715 C29.6130952,11.6369048 30.1190476,11.4285715 30.7142857,11.4285715 L37.8571429,11.4285715 C38.452381,11.4285715 38.9583333,11.6369048 39.375,12.0535715 C39.7916667,12.4702381 40,12.9761905 40,13.5714286 L40,13.5714286 Z M40,2.14285719 L40,6.42857148 C40,7.02380958 39.7916667,7.52976196 39.375,7.94642863 C38.9583333,8.36309529 38.452381,8.57142862 37.8571429,8.57142862 L30.7142857,8.57142862 C30.1190476,8.57142862 29.6130952,8.36309529 29.1964286,7.94642863 C28.7797619,7.52976196 28.5714286,7.02380958 28.5714286,6.42857148 L28.5714286,2.14285719 C28.5714286,1.54761909 28.7797619,1.0416667 29.1964286,0.625000038 C29.6130952,0.208333372 30.1190476,3.90624795e-08 30.7142857,3.90624795e-08 L37.8571429,3.90624795e-08 C38.452381,3.90624795e-08 38.9583333,0.208333372 39.375,0.625000038 C39.7916667,1.0416667 40,1.54761909 40,2.14285719 Z"
          id="形状"></path>
</svg>

<svg width="40" height="32" xmlns="http://www.w3.org/2000/svg"><path d="M11.429 25v4.286c0 .595-.209 1.1-.625 1.518a2.066 2.066 0 0 1-1.518.625H2.143a2.066 2.066 0 0 1-1.518-.625A2.066 2.066 0 0 1 0 29.286V25c0-.595.208-1.101.625-1.518a2.066 2.066 0 0 1 1.518-.625h7.143c.595 0 1.1.208 1.518.625.416.417.625.923.625 1.518zm0-11.429v4.286c0 .595-.209 1.101-.625 1.518A2.066 2.066 0 0 1 9.286 20H2.143a2.066 2.066 0 0 1-1.518-.625A2.066 2.066 0 0 1 0 17.857v-4.286c0-.595.208-1.1.625-1.517a2.066 2.066 0 0 1 1.518-.625h7.143c.595 0 1.1.208 1.518.625.416.416.625.922.625 1.517zM25.714 25v4.286c0 .595-.208 1.1-.625 1.518a2.066 2.066 0 0 1-1.518.625H16.43a2.066 2.066 0 0 1-1.518-.625 2.066 2.066 0 0 1-.625-1.518V25c0-.595.208-1.101.625-1.518a2.066 2.066 0 0 1 1.518-.625h7.142c.596 0 1.102.208 1.518.625.417.417.625.923.625 1.518zM11.43 2.143v4.286c0 .595-.209 1.1-.625 1.517a2.066 2.066 0 0 1-1.518.625H2.143a2.066 2.066 0 0 1-1.518-.625A2.066 2.066 0 0 1 0 6.43V2.143C0 1.548.208 1.042.625.625A2.066 2.066 0 0 1 2.143 0h7.143c.595 0 1.1.208 1.518.625.416.417.625.923.625 1.518zM25.714 13.57v4.286c0 .595-.208 1.101-.625 1.518a2.066 2.066 0 0 1-1.518.625H16.43a2.066 2.066 0 0 1-1.518-.625 2.066 2.066 0 0 1-.625-1.518v-4.286c0-.595.208-1.1.625-1.517a2.066 2.066 0 0 1 1.518-.625h7.142c.596 0 1.102.208 1.518.625.417.416.625.922.625 1.517zM40 25v4.286c0 .595-.208 1.1-.625 1.518a2.066 2.066 0 0 1-1.518.625h-7.143a2.066 2.066 0 0 1-1.518-.625 2.066 2.066 0 0 1-.625-1.518V25c0-.595.209-1.101.625-1.518a2.066 2.066 0 0 1 1.518-.625h7.143c.595 0 1.101.208 1.518.625.417.417.625.923.625 1.518zM25.714 2.143v4.286c0 .595-.208 1.1-.625 1.517a2.066 2.066 0 0 1-1.518.625H16.43a2.066 2.066 0 0 1-1.518-.625 2.066 2.066 0 0 1-.625-1.517V2.143c0-.595.208-1.101.625-1.518A2.066 2.066 0 0 1 16.429 0h7.142c.596 0 1.102.208 1.518.625.417.417.625.923.625 1.518zM40 13.57v4.286c0 .595-.208 1.101-.625 1.518a2.066 2.066 0 0 1-1.518.625h-7.143a2.066 2.066 0 0 1-1.518-.625 2.066 2.066 0 0 1-.625-1.518v-4.286c0-.595.209-1.1.625-1.517a2.066 2.066 0 0 1 1.518-.625h7.143c.595 0 1.101.208 1.518.625.417.416.625.922.625 1.517zm0-11.428v4.286c0 .595-.208 1.1-.625 1.517a2.066 2.066 0 0 1-1.518.625h-7.143a2.066 2.066 0 0 1-1.518-.625 2.066 2.066 0 0 1-.625-1.517V2.143c0-.595.209-1.101.625-1.518A2.066 2.066 0 0 1 30.714 0h7.143c.595 0 1.101.208 1.518.625.417.417.625.923.625 1.518z"/></svg>
